X: 07083
T: MORNINGSIDE WALTZ
C: Bob McQuillen 9 Oct 88
B: Bob's Note Book 7 #83
%R: waltz
Z: 2020 John Chambers <jc:trillian.mit.edu>
M: 3/4
L: 1/8
K: Em
GE \
| B,2 E2 GE | B,2 E2 GG | F2 G3 F | E4 GA | B2 BA GA | B2 Bd ed | BA G2 E2 | D4 ED |
| B,2 E2 GE | B,2 E2 GG | F2 G3 F | E2 G2 A2 | B2 dB GE | D2 B,2 B,D | E2 ED B,D | E4 :|
|: Bc \
| d2 B2 d2 | d2 B3 d | e2 d2 B2 | A4 GA | B2 d3 B | A4 GA | BA G2 E2 | D4 B,D |
| E2 G2 GB | d2 BG Bd | e2 ed BG | A4 BA | G2 E2 GE | D2 B,2 B,D | E2 EG ED | E4 :|
%%begintext align
%% April named this
%% tune; I wrote it for her. "I've been waiting for you to
%% write me a minor key waltz," she said at the time.
%% She really liked it (you should have heard her play it!),
%% and she named it after a place owned by one of her
%% aunts, when she had enjoyed happy times as a girl.
%%endtext

%%sep 1 1 500

%%sep 1 1 500

